X:640
T:554 두번 아멘
Z:Greek
Z:Copyright May 15th 2000 by 전도환
Z:All Rights Reserved
%%score 1 2 3 4
L:1/4
M:4/4
I:linebreak $
K:G
V:1 treble
V:2 treble
V:3 bass
V:4 bass
V:1
 (G2 F E | D2) G2 | (A2 B A) | G4 |] |] %5
w: 아 * *|* 멘|아 * *|멘||
V:2
 (B,2 D C | B,2) B,2 | E2 D C | B,4 |] |] %5
V:3
 (G,4 | G,2) G,2 | G,2 F,2 | G,4 |] |] %5
V:4
 (G,4 | G,2) E,2 | C,2 D,2 | G,,4 |] |] %5
